src/img/projects/instantsearch-react.svg

<?xml version="1.0" encoding="UTF-8"?>
<svg width="90px" height="90px" viewBox="0 0 90 90" version="1.1" xmlns="http://www.w3.org/2000/svg" xmlns:xlink="http://www.w3.org/1999/xlink">
    <!-- Generator: Sketch 41.2 (35397) - http://www.bohemiancoding.com/sketch -->
    <title>community/card/logo/instantsearch-react</title>
    <desc>Created with Sketch.</desc>
    <defs></defs>
    <g id="Symbols" stroke="none" stroke-width="1" fill="none" fill-rule="evenodd">
        <g id="community/card/logo/instantsearch-react" fill="#FFFFFF">
            <path d="M37.8407302,43.2808353 L36.097556,42.2736119 L34.5589306,44.9364689 C33.648454,44.6459538 32.6783241,44.4891591 31.6715722,44.4891591 C26.4264439,44.4891591 22.175367,48.7451312 22.175367,53.9939812 C22.175367,59.2428312 26.4264439,63.4988034 31.6715722,63.4988034 C36.9167006,63.4988034 41.1677774,59.2428312 41.1677774,53.9939812 C41.1677774,51.2004534 39.9636384,48.6881632 38.0463673,46.9490326 L39.5829713,44.2896737 L40.7435125,42.2897206 L37.2609025,40.2688172 L36.0994253,42.2703836 L37.8407302,43.2808353 Z M49.4074433,51.9807362 C50.330106,47.6986558 54.1353376,44.4891591 58.6901994,44.4891591 C63.9353277,44.4891591 68.1864046,48.7451312 68.1864046,53.9939812 C68.1864046,59.2428312 63.9353277,63.4988034 58.6901994,63.4988034 C54.1353376,63.4988034 50.330106,60.2893066 49.4074433,56.0072262 L46.3328428,56.0072262 L46.3328428,51.9807362 L49.4074433,51.9807362 Z M51.3595641,41.2792689 L53.1007719,40.2686498 L51.5540967,37.6038646 C53.4667539,35.8650041 54.6675707,33.3557944 54.6675707,30.566123 C54.6675707,25.317273 50.4164938,21.0613009 45.1713655,21.0613009 C39.9262372,21.0613009 35.6751603,25.317273 35.6751603,30.566123 C35.6751603,35.814973 39.9262372,40.0709452 45.1713655,40.0709452 C46.1818818,40.0709452 47.1555017,39.9129757 48.0689346,39.6203708 L49.6110561,42.2773104 L50.7273344,44.2661951 L54.2385859,42.2954755 L53.1151898,40.2939091 L51.3595641,41.2792689 Z M48.0862,70.5482589 C53.760821,74.9227413 59.0174341,76.4382037 62.3081632,74.5358854 C65.2627763,72.8248765 66.6979091,68.3172304 66.1473436,61.8273011 L70.1594226,61.4869412 C70.8275259,69.3623779 68.9176098,75.3612834 64.3246498,78.0210543 C59.1869917,80.9910536 52.1157173,78.9498333 44.9999812,73.2489602 C37.8841864,78.9497866 30.8126675,80.9908564 25.6740275,78.0202889 C21.0823902,75.3612834 19.1724741,69.3623779 19.8405774,61.4869412 L23.8526564,61.8273011 C23.3020909,68.3172304 24.7372237,72.8248765 27.690514,74.5351201 C30.9821748,76.4379774 36.2390652,74.9226734 41.9137693,70.5482362 C40.5161282,69.2210387 39.1273851,67.7591925 37.7620175,66.1730551 L40.8136159,63.5461997 C42.2027225,65.1599145 43.6054482,66.6206168 44.9999947,67.9204376 C46.3945491,66.6206196 47.7972762,65.159916 49.1863841,63.5461997 L52.2379825,66.1730551 C50.8726063,67.7592025 49.4838543,69.2210572 48.0862,70.5482589 Z M23.9335548,30.2218354 C26.4373765,29.4375397 29.1559283,28.7948036 32.0451795,28.3133815 L32.7069702,32.2851135 C29.7568989,32.7766698 27.0309132,33.4440246 24.5788565,34.2475358 C25.0448725,36.4695125 25.7097016,38.8247547 26.5803951,41.2714897 L22.7869409,42.6214257 C21.9416429,40.2460546 21.2683926,37.9281683 20.7702428,35.6989428 C14.6637969,38.3946901 11.0264901,42.0259545 11.0264901,45.6636525 C11.0264901,49.0262468 14.1089503,52.4904862 19.7792011,55.1878384 L18.0495245,58.8238858 C11.126241,55.530463 7,50.8931649 7,45.6636525 C7,39.9211831 12.00887,34.9450122 20.0415078,31.6257648 C18.9082129,23.0342775 20.7206816,16.2429259 25.6861684,13.3682175 C30.3971627,10.6150924 36.7961818,12.1234899 43.4606547,16.9661775 L41.0937306,20.2235219 C35.5802605,16.2172016 30.7426259,15.0768587 27.7106728,16.8487256 C24.563228,18.6709094 23.2237246,23.6052928 23.9335548,30.2218354 Z M65.4408489,34.2440371 C62.984447,33.4402512 60.2526774,32.7741232 57.2957362,32.2855626 L57.9521141,28.3129324 C60.849648,28.7916775 63.5756143,29.433535 66.0855573,30.2185411 C66.7940986,23.6032701 65.4529403,18.66924 62.3012635,16.8445932 C59.2764147,15.0768587 54.4387801,16.2172016 48.92531,20.2235219 L46.558386,16.9661775 C53.2228588,12.1234899 59.6218779,10.6150924 64.3257679,13.3640851 C69.2955326,16.241284 71.1096654,23.0317503 69.9779165,31.6215108 C77.9987254,34.9355357 83,39.9128985 83,45.6636525 C83,50.8931649 78.873759,55.530463 71.9504755,58.8238858 L70.2207989,55.1878384 C75.8910497,52.4904862 78.9735099,49.0262468 78.9735099,45.6636525 C78.9735099,42.0174526 75.3441346,38.38592 69.2496894,35.694758 C68.751486,37.9252828 68.0779238,40.2445762 67.2320998,42.6214257 L63.4386455,41.2714897 C64.3097913,38.8234836 64.9748588,36.4670653 65.4408489,34.2440371 Z M44.0479694,56.0072262 L46.3328428,56.0072262 L46.3328428,51.9807362 L44.0479694,51.9807362 L44.0479694,56.0072262 Z M31.6715722,59.4723133 C28.651251,59.4723133 26.2018571,57.0200988 26.2018571,53.9939812 C26.2018571,50.9678636 28.651251,48.5156491 31.6715722,48.5156491 C34.6918935,48.5156491 37.1412874,50.9678636 37.1412874,53.9939812 C37.1412874,57.0200988 34.6918935,59.4723133 31.6715722,59.4723133 Z M58.6901994,59.4723133 C61.7105206,59.4723133 64.1599145,57.0200988 64.1599145,53.9939812 C64.1599145,50.9678636 61.7105206,48.5156491 58.6901994,48.5156491 C55.6698781,48.5156491 53.2204842,50.9678636 53.2204842,53.9939812 C53.2204842,57.0200988 55.6698781,59.4723133 58.6901994,59.4723133 Z M45.1713655,36.0444551 C42.1510443,36.0444551 39.7016504,33.5922406 39.7016504,30.566123 C39.7016504,27.5400054 42.1510443,25.0877909 45.1713655,25.0877909 C48.1916867,25.0877909 50.6410806,27.5400054 50.6410806,30.566123 C50.6410806,33.5922406 48.1916867,36.0444551 45.1713655,36.0444551 Z" id="Combined-Shape"></path>
        </g>
    </g>
</svg>

<svg width="90" height="90" viewBox="0 0 90 90" xmlns="http://www.w3.org/2000/svg"><title>community/card/logo/instantsearch-react</title><path d="M37.84 43.28l-1.742-1.006-1.54 2.662a9.483 9.483 0 0 0-2.886-.447c-5.246 0-9.497 4.256-9.497 9.505 0 5.249 4.251 9.505 9.497 9.505 5.245 0 9.496-4.256 9.496-9.505a9.484 9.484 0 0 0-3.122-7.045l1.537-2.66 1.16-2-3.482-2.02-1.162 2.001 1.742 1.01zm11.567 8.7c.923-4.281 4.728-7.49 9.283-7.49 5.245 0 9.496 4.255 9.496 9.504s-4.25 9.505-9.496 9.505c-4.555 0-8.36-3.21-9.283-7.492h-3.074v-4.026h3.074zm1.953-10.7l1.74-1.011-1.546-2.665a9.484 9.484 0 0 0 3.114-7.038c0-5.249-4.252-9.505-9.497-9.505s-9.496 4.256-9.496 9.505c0 5.249 4.251 9.505 9.496 9.505 1.01 0 1.985-.158 2.898-.45l1.542 2.656 1.116 1.99 3.512-1.972-1.124-2.001-1.755.985zm-3.274 29.268c5.675 4.375 10.931 5.89 14.222 3.988 2.955-1.711 4.39-6.219 3.84-12.709l4.011-.34c.669 7.875-1.241 13.874-5.834 16.534-5.138 2.97-12.21.929-19.325-4.772-7.116 5.7-14.187 7.742-19.326 4.771-4.592-2.659-6.502-8.658-5.833-16.533l4.012.34c-.55 6.49.884 10.998 3.838 12.708 3.291 1.903 8.548.388 14.223-3.987a60.148 60.148 0 0 1-4.152-4.375l3.052-2.627A55.302 55.302 0 0 0 45 67.92a55.3 55.3 0 0 0 4.186-4.374l3.052 2.627a60.147 60.147 0 0 1-4.152 4.375zM23.934 30.222c2.503-.784 5.222-1.427 8.111-1.909l.662 3.972c-2.95.492-5.676 1.159-8.128 1.963a54.278 54.278 0 0 0 2.001 7.023l-3.793 1.35A59.281 59.281 0 0 1 20.77 35.7c-6.106 2.696-9.744 6.327-9.744 9.965 0 3.362 3.083 6.826 8.753 9.524l-1.73 3.636C11.127 55.53 7 50.894 7 45.664c0-5.743 5.009-10.719 13.042-14.038-1.134-8.592.679-15.383 5.644-18.258 4.711-2.753 11.11-1.245 17.775 3.598l-2.367 3.258c-5.514-4.007-10.351-5.147-13.383-3.375-3.148 1.822-4.487 6.756-3.777 13.373zm41.507 4.022c-2.457-.804-5.188-1.47-8.145-1.958l.656-3.973c2.898.479 5.624 1.12 8.134 1.906.708-6.616-.633-11.55-3.785-13.374-3.025-1.768-7.862-.628-13.376 3.379l-2.367-3.258c6.665-4.843 13.064-6.35 17.768-3.602 4.97 2.877 6.784 9.668 5.652 18.258C77.998 34.936 83 39.912 83 45.664c0 5.23-4.126 9.866-11.05 13.16l-1.73-3.636c5.671-2.698 8.754-6.162 8.754-9.524 0-3.647-3.63-7.278-9.724-9.97a59.268 59.268 0 0 1-2.018 6.927l-3.793-1.35a54.262 54.262 0 0 0 2.002-7.027zM44.048 56.007h2.285v-4.026h-2.285v4.026zm-12.376 3.465a5.474 5.474 0 0 1-5.47-5.478 5.474 5.474 0 0 1 5.47-5.478c3.02 0 5.47 2.452 5.47 5.478a5.474 5.474 0 0 1-5.47 5.478zm27.018 0c3.02 0 5.47-2.452 5.47-5.478a5.474 5.474 0 0 0-5.47-5.478 5.474 5.474 0 0 0-5.47 5.478 5.474 5.474 0 0 0 5.47 5.478zM45.171 36.044a5.474 5.474 0 0 1-5.47-5.478 5.474 5.474 0 0 1 5.47-5.478c3.02 0 5.47 2.452 5.47 5.478a5.474 5.474 0 0 1-5.47 5.478z" fill="#FFF" fill-rule="evenodd"/></svg>
